X:1
T:Holberg Suite
T:Holberg Suite
T:IV. Air
T:Edvard Grieg, Op. 40
T:Arr. for piano 4 hands by Theodor Kirchner 
C:Edvard Grieg, Op. 40
Z:Arr. for piano 4 hands
%%score { 1 | 2 } { ( 3 5 ) | ( 4 6 7 ) }
L:1/8
Q:1/4=50
M:3/4
K:Bb
V:1 treble nm="Primo\nPiano" snm="P. Pno."
V:2 treble 
V:3 bass nm="Secondo\nPiano" snm="S. Pno."
V:5 bass 
V:4 bass 
V:6 bass 
V:7 bass 
V:1
!p!"^Andante religioso" d2!pp! d4 |!p! (3!>!d/4c/4=B/4c/c- c3 z | c2!pp! c4 | %3
!p! (3!>!c/4_B/4A/4B/B- B3 z | z!f! !>!f2 dB_A | _A/4G/4F/4G/4(3F/4G/4A/4G/- G4 | %6
 z!p! d d/=B/B/G/ G/_A/A/F/ | F/4E/4D/4E/4(3D/4E/4F/4E/- E4 | z!pp! [Ad^f][Adf][Adf][Adf][Adf] | %9
 [dg][dg][dg][dg][dg][dg] | z [=ea^c'][eac'][eac'][eac'][eac'] | %11
 [ad'][ad'][=egd'][ebd']!<(! [ead'][ea^c']/>d'/!<)! |!f! d'4- d'>"_dim."=c' | %13
 c'/=b/[Q:1/4=45]"_e ritardando"b/_b/ b/a/a[Q:1/4=35]!p! (3d'/4!<(!^c'/4=b/4c'd'/!<)! | %14
[Q:1/4=30]"_rit. molto" d' z z4 :|[Q:1/4=50]"^a tempo"!pp! d2 d4 | f/e/e/d/ (3d/4e/4f/4e/- e3 | %17
 z2 f3 c | e/d/d/c/ (3c/4d/4e/4d/d z/ eB/ | d/c/c/d/ d/A/A/c/ c/B/B/c/ | c/G/G/B/ B/A/A/F/ z2 | %21
 z2 z2!p! f2- | f/e/e/c/!<(! c/e/e/!<)!!mp!f/ z2 | z2"_cresc." f/c/c/g/ g/d/d/f/ | %24
 z/ b/b/c'/ c'2- c'>g' |!ff! !>!g'2- g'/b'/b'/a'/ a'/f'/f'/g'/ | %26
!<(! g'/a'/a'/!<)!!>!b'/ !>!b'/!>(!a'/a'/g'/!>)!!f! g'/!>(!c'/c'/f'/ | %27
 f'/b/b/!>)!!mf!c'/!<(! c'2- c'>b!<)! | b2- b z!mp! z2 | z6 |!p! ^F2- F/=E/E/D/ E/F/F/G/ | %31
 z!pp! [D^F][DF][DF][D=E][DE] |!p! ^F2- F/=E/E/D/ E/F/(3A/G/F/ | z!pp! [D^F][DF][DF][D=E][DE] | %34
!p! ^F2- F/"_cresc."=E/E/F/ F2- | F/=E/E/^F/ F2- F/E/E/^F/ | %36
 ^F/=E/E/!mp!F/ F/"_dim."E/E/F/ F/E/E/F/ | ^F/G/G/^G/ G/A/A/d/ d/^c/c/d/ | %38
!p! d/!>(!^c/c/d/ d/[Q:1/4=40]"_poco rit."c/c/d/ d/c/c/d/!>)! | %39
[Q:1/4=50]"^a tempo" z/!pp! ^c/c/d/ d/c/c/d/ d/c/c/d/ | z/ =B/B/=c/ c/B/B/c/ c/B/B/c/ | %41
 z/ =B/B/c/ c/B/B/c/ c/B/B/c/ | z/ A/A/_B/ B/A/!<(!A/B/ B/A/A/B/!<)! | %43
 z/!mf! =e/e/f/ f/e/e/"_dim."f/ f/e/e/f/ | z/!mp! A/A/B/ B/A/A/B/!>(! B/^F/F/G/!>)! | %45
 z/!pp! ^c/c/d/ d/c/c/d/ d/c/c/d/ | z/ ^F/F/G/ G/F/F/G/ G/D/D/E/ |!p! ^f4 f/a/g/f/ | %48
 a/g/^f/g/{/fga} g4 |"_cresc." =b4- b/d'/c'/b/ | d'/c'/=b/c'/!f!{/bc'd'} c'4 | %51
 z!mf! [ad'^f'][bd'f'][ad'f'][a^c'f'][ad'f'] | %52
 [gd'g'][d'g'][=c'g'][e'g']!<(! [d'g'][^f^f']/>[gg']/!<)! |!f! [gg']4 [gg']>[ff'] | %54
 f'/=e'/e'/_e'/ e'/d'/d'!<(! (3g'/4^f'/4=e'/4f'g'/!<)! | %55
!ff! g'[Q:1/4=30]"^molto rit."!p!!>(! GG[Q:1/4=20]G!>)!!pp! G2 |] %56
V:2
!pp!!ped! GGGGGG!ped-up! | G!ped!GGGGG!ped-up! |!ped! ^FFFFFF!ped-up! | %3
 G!ped!G!<(!GG=FE!ped-up!!<)! |!mp!!ped! DDDDDD!ped-up! | z D!>(!DD_DC!>)! |!pp! =B,B,B,B,B,B, | %7
 z =B,B,=DDC | z!ped! [A,D^F][A,DF][A,DF][A,DF][A,DF]!ped-up! | %9
!ped! [G,DG][G,DG][G,DG][G,DG][G,DG][G,DG]!ped-up! | z!ped! [=EA^c][EAc][EAc][EAc][EAc]!ped-up! | %11
!ped! [DAd][DAd]!ped-up!!ped![=EGd][EBd]!ped-up! [EAd][EA^c]/>d/ | d4- d>=c | %13
 c/=B/B/_B/ B/A/A (3d/4^c/4=B/4cd/ | d!p!!>(! DDD!>)!!pp! D2 :| %15
!pp!!ped! [FB][FB][FB][FB][FB][FB]!ped-up! | [GB][GB][GB][GB][GB][GB] | %17
!ped! [FA][FA][FA][FA][FA][FA]!ped-up! |!ped! [FB][FB]!ped-up![FB][FB][EB]E | [EA][EA]DD[DG][DG] | %20
 CC[CF][CF] F2- | F/!<(!E/E/C/ C/E/E/!<)!!p!F/!p! [FB][FB] | [FB][EG][CF][EG]!<(! F/C/C/G/ | %23
 G/D/D/!<)!!mp!F/!p! [FB]"_cresc."FGB | z/ B/B/c/ c2- c>g |!ff! !>!g2- g/b/b/a/ a/f/f/g/ | %26
 g/a/a/!>!b/ !>!b/a/a/g/ g/c/c/f/ | f/B/B/c/ c2- c>B | %28
!ped! B!>(! [FB][FB][FB]!>)![FB]!ped-up![FB] | z"^dim."!ped! [EA][EA][EA][EA][EA]!ped-up! | %30
!pp! DDDDDD | z A,A,A,G,B, |!pp! [A,D][A,D][A,D][A,D][B,D][B,D] | z A,A,A,G,G, | %34
!pp! [A,D][A,D][G,D]"_cresc."[G,D][A,D][A,D] | [B,D][B,D][A,D][A,D][G,D][G,D] | %36
 [A,D]!mp![G,D]"_dim."[A,D][B,D][A,D][G,D] | [A,D].[D^F].[DF].[DF].[_EG].[EG] | %38
!pp! [=E^G]!>(![EG][=FA][FA][^FA][FA]!>)! |!pp! z [=G_B][GB][GB][GB][GB] | %40
 z [EGA][EGA][EGA][EGA][EGA] | z [E^FA][EFA][EFA][EFA][EFA] | z [DG][DG]GGG | z BBB[FB][FB] | %44
 z [EG][EG][EG]EE | z GG[DG][D=F][DF] | z [G,E][G,E][G,E][G,E]G, | ^F4 F/A/G/F/ | %48
 A/G/^F/G/{/FGA} G4 | =B4- B/d/c/B/ | d/c/=B/c/{/Bcd} c4 | z [Ad^f][Bdf][Adf][A^cf][Adf] | %52
 [Gd][dg][=cg][eg][dg]d | ddccdd | f/=e/e/_e/ e/d/d (3g/4^f/4=e/4fg/ | g [B,D][B,D][B,D] [B,D]2 |] %56
V:3
!pp! [B,D][B,D][B,D][B,D][B,D][B,D] | [A,E][A,E][A,E][A,E][A,E][A,E] | %2
 [A,C][A,C][A,C][A,C][A,C][A,C] | [B,D][B,D]!<(![B,D][B,D][G,B,][G,B,]!<)! | %4
!mf! [F,B,][F,B,][F,B,][F,B,][F,B,][F,B,] | [E,G,][E,G,]!>(![E,G,][E,G,][E,G,][E,G,]!>)! | %6
!pp! [D,G,][D,G,][D,G,][D,G,][D,G,][D,G,] | z [E,G,][E,G,][E,G,][E,G,][E,G,] | %8
!p! C,4- C,/E,/D,/C,/ | C,/B,,/A,,/B,,/ (3A,,/4B,,/4C,/4B,,/- B,,3 | G,4- G,/B,/A,/G,/ | %11
 G,/F,/=E,/F,/ .C/.B,/.A,/.G,/!<(! A,2!<)! |[K:treble]!f! [DA]!>(![DA][DG][DG]!>)!!mf! [DA][DA] | %13
"_dim." [DG][DF][^C=E][A,D]!p!!<(! [A,E]!p![EA]!<)! | %14
 [DFA][K:bass]!>(! [F,A,][F,A,][F,A,]!>)!!pp! [F,A,]2 :|!pp! DDDDDD | [CE][CE][CE][CE][CE][CE] | %17
 [CE][CE][CE][CE][CE][CE] | [B,D][B,D][B,D][B,D][B,D][B,D] | [A,C][A,C][A,C][A,C][G,B,][G,B,] | %20
 [G,B,][G,B,][F,A,][F,A,] [F,B,][F,B,] |!<(! [F,B,][G,B,][F,A,][G,B,]!<)!!p! B,B, | %22
!pp!!<(! B,B,A,!<)!!p!B,!pp!!<(! [F,B,][F,A,] | %23
 [G,B,]!<)!!p![G,B,]!pp! B,"_cresc."[A,C][B,E][B,D] | F=E [B,CF][B,CF][A,CF][A,CF] | %25
!ff! [G,B,G][G,B,][G,B,][B,D][A,C][F,A,] | [G,B,]!f![A,C][B,D][A,C]!f! B,!>(!G/F/!>)! | %27
!mf! [B,F][B,=E]!<(! [B,CF][B,DF][A,_EF][A,EF]!<)! | D!>(! DDD!>)!!mp!DD | z"_dim." CCCCC | %30
!pp! [D,A,][D,A,][D,A,][D,A,][D,B,][D,B,] |!p! D,2- D,/C,/C,/B,,/ B,,/A,,/A,,/G,,/ | %32
!pp! D,D,D,D,D,D, |!p! D,2- D,/C,/C,/B,,/ B,,/A,,/(3C,/B,,/A,,/ |!pp! D,D,"_cresc."D,D,D,D, | %35
 D,D,D,D,D,D, | D,!p!D,"_dim."D,D,D,D, | D,2!pp! D, z z2 | z6 |!f! D2 D4 | %40
 (3D/4C/4=B,/4C/-C- C3 z | C2 C4 | (3C/4_B,/4A,/4B,/-B,- B,3 z | z!ff! =F2 .D.B,._A, | %44
 _A,/4G,/4^F,/4G,/4(3F,/4G,/4A,/4G,/- G,3 z | z"_dim." D-D/=B,/B,/G,/ G,/_A,/A,/=F,/ | %46
 F,/4E,/4D,/4E,/4(3D,/4E,/4F,/4!p!E,/- E,3 z |!p! z [D,^F,A,][E,F,A,][D,F,A,][^C,F,A,][D,F,A,] | %48
 z [D,G,B,][E,G,B,][D,G,B,][^C,G,B,][D,G,B,] | z"_cresc." [G,=B,D][_A,B,D][G,B,D][^F,B,D][G,B,D] | %50
 z [G,CE][_A,CE][G,CE][^F,CE][G,CE] |!f! !>!C4- C/!f!E/D/C/ | C/B,/A,/B,/ .=F/.E/.D/.C/!mf! D[DA] | %53
 [DG][DG][CG][CG][DG][DG] | [CG][_B,G][A,^F][G,DG]!<(![A,DG][A,DF]!<)! | %55
!ff! [B,DG]/!p!G,/!>(!.=F,/.E,/ .D,/.C,/.B,,/.A,,/!>)!!pp! G,,2 |] %56
V:4
!p!!ped!{/G,,} G,6!ped-up! |!ped! G,6!ped-up! |!ped!{/G,,} G,6!ped-up! | %3
!ped! G,4!ped-up!!mp! .F,.E, |!ped!{/D,,} D,6- | D,4!ped-up!!>(! ._D,.C,!>)! | %6
!p!!ped!{/=B,,,} =B,,6- | B,,3!ped-up! D, D,C, |!ped! C,,4- C,,/E,,/!ped-up!D,,/C,,/ | %9
 C,,/B,,,/A,,,/B,,,/ (3A,,,/4B,,,/4C,,/4B,,,/- B,,,3 | G,,4- G,,/B,,/A,,/G,,/ | %11
 G,,/F,,/=E,,/F,,/ .C,/.B,,/.A,,/.G,,/ A,,2 |!ped! B,,4 [^F,,^F,]2!ped-up! | %13
"^e. ritardando" [G,,G,]3 [=F,,=F,]/[G,,G,]/ A,,2 | %14
"^rit. molto" D,/!p!D,/C,/B,,/ A,,/G,,/F,,/=E,,/ D,,2 :|!p!!ped!{/B,,} B,6!ped-up! | %16
!ped!{/B,,} B,6!ped-up! |!ped!{/B,,} B,6!ped-up! |!ped! B,,2 [A,,A,]2 [G,,G,]2- | %19
 [G,,G,]2!ped-up!!ped! [F,,F,]4!ped-up! |!p!!ped!{/B,,} B,6!ped-up! |!ped!{/B,,} B,6!ped-up! | %22
!ped!{/B,,} B,6!ped-up! | B,,2"_cresc." [A,,A,]2!mp!!ped! [G,,G,]2- | %24
 [G,,G,]2!ped-up!!ped! [F,,F,]4!ped-up! | [E,,E,]6 | [E,,E,]4 [E,,E,][E,,E,] | %27
 !>![D,,D,]!>![G,,G,] [F,,F,]4 |!ped! [B,,,B,,]4- [B,,,B,,]!ped-up! z |!p! [C,,C,]4- [C,,C,] z | %30
!ped! D,,4!ped-up!!ped! G,,2!ped-up! | D,,2- D,,/C,,/C,,/B,,,/ B,,,/A,,,/A,,,/G,,,/ | %32
!ped! D,,4 G,,2!ped-up! | D,,2- D,,/C,,/C,,/B,,,/ B,,,/A,,,/(3C,/B,,/A,,/ | %34
!p! D,,2"_cresc." B,,2 A,,2 | G,,2 ^F,,2 =E,,2 | D,,!mp!B,,"_dim."A,,G,,^F,,=E,, | %37
!ped! D,,2!p! D,, z!ped-up! z2 | z6 | %39
!pp!!ped! z!pp![I:staff -1] .[D,G,B,].[D,G,B,].[D,G,B,].[D,G,B,].[D,G,B,]!ped-up! | %40
!p![I:staff +1] z!pp! [E,G,][E,G,][E,G,][E,G,][E,G,] | %41
!p!!ped! z!pp![I:staff -1] [^F,A,][F,A,][F,A,][F,A,][F,A,]!ped-up! | %42
!p![I:staff +1] z!pp! [D,G,][D,G,]!<(! [G,,G,] [=F,,=F,][E,,E,]!<)! |!mf! [D,,D,]6- | %44
 [D,,D,]2 z!>(! [D,,D,] [_D,,_D,][C,,C,]!>)! |!mp! [=B,,,=B,,]6- | %46
 [B,,,B,,]2 z!>(! [D,,D,] [D,,D,][C,,C,]!>)! | [C,,C,]6 | [_B,,,_B,,]6 | [=F,,=F,]6 | [E,,E,]6 | %51
 !>!C,4- C,/E,/D,/C,/ | C,/B,,/A,,/B,,/ .=F,/.E,/.D,/.C,/ D,2 | [E,,E,]4 [=B,,,=B,,]2 | %54
 [C,,C,]3 [_B,,,_B,,]/[C,,C,]/ [D,,D,]2 | G,,/G,,/.=F,,/.E,,/ .D,,/.C,,/.B,,,/.A,,,/ G,,,2 |] %56
V:5
 x6 | x6 | x6 | x6 | x6 | x6 | x6 | x6 | x6 | x6 | x6 | x6 |[K:treble] x6 | x6 | x[K:bass] x5 :| %15
 x6 | x6 | x6 | x6 | x6 | x6 | x6 | x6 | x6 | x6 | x6 | x4 G,[A,C] | x6 | x6 | x6 | x6 | x6 | x6 | %33
 x6 | x6 | x6 | x6 | x6 | x6 | x6 | x6 | x6 | x6 | x6 | x6 | x6 | x6 | x6 | x6 | x6 | x6 | x6 | %52
 x6 | x6 | x6 | x6 |] %56
V:6
 x6 | x6 | x6 | x6 | x6 | x6 | x6 | x6 | x6 | x6 | x6 | x6 | x6 | x6 | x6 :| x6 | x6 | x6 | x6 | %19
 x6 | x6 | x6 | x6 | x6 | x6 | x6 | x6 | x6 | x6 | x6 | x6 | x6 | x6 | x6 | x6 | x6 | x6 | x6 | %38
 x6 | [G,,,G,,]6 | G,,6 | x E,E,E,E,E, | G,,3 x x2 | x6 | x6 | x6 | x6 | x6 | x6 | x6 | x6 | x6 | %52
 x6 | x6 | x6 | x6 |] %56
V:7
 x6 | x6 | x6 | x6 | x6 | x6 | x6 | x6 | x6 | x6 | x6 | x6 | x6 | x6 | x6 :| x6 | x6 | x6 | x6 | %19
 x6 | x6 | x6 | x6 | x6 | x6 | x6 | x6 | x6 | x6 | x6 | x6 | x6 | x6 | x6 | x6 | x6 | x6 | x6 | %38
 x6 | x6 | x6 | G,,6 | x6 | x6 | x6 | x6 | x6 | x6 | x6 | x6 | x6 | x6 | x6 | x6 | x6 | x6 |] %56

